X: 21332
T: TYKE SIDE
C: By James Hill
R: hornpipe, reel
B: K\"ohler's Violin Repository, v.2, 1885 p.133 #2
F: http://www.archive.org/details/klersviolinrepos02rugg
Z: 2012 John Chambers <jc:trillian.mit.edu>
N: The only repeat symbol is at the end; maybe the two parts should be repeated.
M: C|
L: 1/8
K: F
(c>B) |\
A>c~c2 d>c~c2 | fcag fc~c2 | (dc)fe dcBA | cBAB G2(cB) |
A>c~c2 d>c~c2 | fcag fc~c2 | (df)ef Bfef | dbge f2 |] u(fg) |
afcA fcAF | CFAc fcag | fgef dbca | BgAf G2(fg) |
afcA fcAF | CFAc fcag | f>c~c2 A>c~c2 | dfeg f2 :|

%%sep 2 1 500

